challenges/responsive-design/recipe-page-master/assets/restaurant-menu.svg

<svg width="48" height="48" viewBox="0 0 48 48" fill="none" xmlns="http://www.w3.org/2000/svg">
<path d="M8.25 42L6.15 39.9L27.15 18.9C26.4167 17.3 26.25 15.6417 26.65 13.925C27.05 12.2083 28 10.6 29.5 9.1C31 7.63333 32.8167 6.69167 34.95 6.275C37.0833 5.85833 38.8333 6.33333 40.2 7.7C41.6 9.1 42.075 10.85 41.625 12.95C41.175 15.05 40.1667 16.9 38.6 18.5C37.2333 19.9 35.7083 20.8167 34.025 21.25C32.3417 21.6833 30.7667 21.5833 29.3 20.95L25.95 24.3L41.55 39.9L39.45 42L23.85 26.4L8.25 42ZM14.5 24.45L8.55 18.5C6.85 16.8 5.96666 14.7833 5.9 12.45C5.83333 10.1167 6.6 8.05 8.2 6.25L20.45 18.5L14.5 24.45Z" fill="#F2994A"/>
</svg>

<svg xmlns="http://www.w3.org/2000/svg" height="48" width="48"><path d="m8.25 42-2.1-2.1 21-21q-1.1-2.4-.5-4.975.6-2.575 2.85-4.825 2.25-2.2 5.45-2.825T40.2 7.7q2.1 2.1 1.425 5.25T38.6 18.5q-2.05 2.1-4.575 2.75-2.525.65-4.725-.3l-3.35 3.35 15.6 15.6-2.1 2.1-15.6-15.6Zm6.25-17.55L8.55 18.5Q6 15.95 5.9 12.45q-.1-3.5 2.3-6.2L20.45 18.5Z"/></svg>
